X:133
T:Lord, Keep Us Steadfast in Thy Word
%%stretchlast false
M:none
L:1/4
K:F clef=C1
"^vi"[DFAd]2 [DAf] "^ii¹"[B,DGd] | "^iii"[A,EAc] "^ii"[G,GBd] "^vi¹"[F,Adf]/ "^vi"[G,Adf]/ "^V/vi"[A,A_de] | "^vi"[D,FAd]2 "^IV"[B,Bdf]2 | "^ii"[G,Bdg] "^V"[Cceg] "^I"[F,cfa] "^IV"[B,Bdf] | "^ii"[G,Bdg] "^V"[Cceg] "^I"[F,cfa]2 | [F,Fca]2 "^IV"[B,Fdb] "^I"[F,Fca] | "^V"[CGec'] "^vi"[DFfa] "^ii¹"[B,Bdg] "^V"[CGeg] | "^I"[F,Acf]2 [F,Fca]2 | "^IV"[B,Fdf] "^ii"[G,Bdg] "^I¹"[A,Acf] "^V"[CGce] | "^vi"[DFAd] "^V/vi"[A,EA_d] "^vi"[D,FAd]2 |]
